X: 411
T: Pettycoat loose
S: MS of Walter Rainstorp 1747++ 
S: https://brbl-dl.library.yale.edu/vufind/Record/3444369
F: https://brbl-dl.library.yale.edu/pdfgen/exportPDF.php?bibid=2057949&solrid=3444369
%R: jig
Z: 2019 John Chambers <jc:trillian.mit.edu>
M: 6/8
L: 1/8
K: Gm
A |\
B2G AFD | B2G AFD | FGF F2c | FGF F2A |\
B2G AFD | B2G AFD | GAG G2d | GAG G2 :|
|: A |\
Bcd cde | dcB AGF  | fgf fcA | fgf fcA |\
Bcd cde | dcB AG^F | gag gdB | gag gdB |
Bcd cde | dcB AGF  | fgf fcA | fgf fcA |\
Bcd cde | dcB AG^F | GAG G2d | GAG G2 :|
%%begintext align
%% [no dance]
%%endtext
